front/pasteleria2.0/build/img/twitter.svg

<svg xmlns="http://www.w3.org/2000/svg" width="512" height="512" shape-rendering="geometricPrecision" text-rendering="geometricPrecision" image-rendering="optimizeQuality" fill-rule="evenodd" clip-rule="evenodd"><path fill="#03a9f4" d="M30.5-.5h450c16 4.667 26.333 15 31 31v450c-4.632 15.965-14.965 26.298-31 31h-450c-16-4.667-26.333-15-31-31v-450c4.667-16 15-26.333 31-31z"/><path fill="#fefefe" d="M103.5 223.5c-.302-2.559.032-4.893 1-7 7.102 4.145 14.768 6.478 23 7 1.788 1.122 3.788 1.289 6 .5-.544-.717-1.211-1.217-2-1.5-22.275-17.633-31.108-40.633-26.5-69 1.103-7.311 3.769-13.978 8-20 34.358 41.599 78.524 64.932 132.5 70 2.524 1.3 5.191 1.3 8 0-.124-.607-.457-.94-1-1-4.426-39.387 11.907-65.887 49-79.5 26.317-5.547 49.15.953 68.5 19.5a170.634 170.634 0 0041-16c-4.914 15.6-14.414 27.766-28.5 36.5a63.16 63.16 0 0014-2 475.71 475.71 0 0124-7c-9.127 12.794-19.96 23.96-32.5 33.5.297 69.223-26.537 125.056-80.5 167.5-38.598 25.986-81.265 37.653-128 35-31.482-2.494-60.482-12.161-87-29 31.749 2.053 61.082-5.28 88-22l9-7c-27.161-2.318-46.995-15.485-59.5-39.5-1.314-2.589-1.981-5.256-2-8 6.752 1.145 13.586 1.311 20.5.5a25.777 25.777 0 008-2c-30.562-8.393-48.229-28.227-53-59.5z"/><path fill="#99dbfa" d="M252.5 202.5c.543.06.876.393 1 1-2.809 1.3-5.476 1.3-8 0 2.559.302 4.893-.032 7-1z"/><path fill="#68caf8" d="M104.5 216.5c-.968 2.107-1.302 4.441-1 7-1.3-2.524-1.3-5.191 0-8 .607.124.94.457 1 1z"/><path fill="#98dbfa" d="M131.5 222.5c.789.283 1.456.783 2 1.5-2.212.789-4.212.622-6-.5 1.599.268 2.932-.066 4-1z"/></svg>

<?xml version="1.0" encoding="UTF-8"?>
<!DOCTYPE svg PUBLIC "-//W3C//DTD SVG 1.1//EN" "http://www.w3.org/Graphics/SVG/1.1/DTD/svg11.dtd">
<svg xmlns="http://www.w3.org/2000/svg" version="1.1" width="512px" height="512px" style="shape-rendering:geometricPrecision; text-rendering:geometricPrecision; image-rendering:optimizeQuality; fill-rule:evenodd; clip-rule:evenodd" xmlns:xlink="http://www.w3.org/1999/xlink">
<g><path style="opacity:1" fill="#03a9f4" d="M 30.5,-0.5 C 180.5,-0.5 330.5,-0.5 480.5,-0.5C 496.5,4.16667 506.833,14.5 511.5,30.5C 511.5,180.5 511.5,330.5 511.5,480.5C 506.868,496.465 496.535,506.798 480.5,511.5C 330.5,511.5 180.5,511.5 30.5,511.5C 14.5,506.833 4.16667,496.5 -0.5,480.5C -0.5,330.5 -0.5,180.5 -0.5,30.5C 4.16667,14.5 14.5,4.16667 30.5,-0.5 Z"/></g>
<g><path style="opacity:1" fill="#fefefe" d="M 103.5,223.5 C 103.198,220.941 103.532,218.607 104.5,216.5C 111.602,220.645 119.268,222.978 127.5,223.5C 129.288,224.622 131.288,224.789 133.5,224C 132.956,223.283 132.289,222.783 131.5,222.5C 109.225,204.867 100.392,181.867 105,153.5C 106.103,146.189 108.769,139.522 113,133.5C 147.358,175.099 191.524,198.432 245.5,203.5C 248.024,204.8 250.691,204.8 253.5,203.5C 253.376,202.893 253.043,202.56 252.5,202.5C 248.074,163.113 264.407,136.613 301.5,123C 327.817,117.453 350.65,123.953 370,142.5C 384.36,138.936 398.026,133.602 411,126.5C 406.086,142.1 396.586,154.266 382.5,163C 387.19,162.865 391.856,162.198 396.5,161C 404.539,158.427 412.539,156.094 420.5,154C 411.373,166.794 400.54,177.96 388,187.5C 388.297,256.723 361.463,312.556 307.5,355C 268.902,380.986 226.235,392.653 179.5,390C 148.018,387.506 119.018,377.839 92.5,361C 124.249,363.053 153.582,355.72 180.5,339C 183.5,336.667 186.5,334.333 189.5,332C 162.339,329.682 142.505,316.515 130,292.5C 128.686,289.911 128.019,287.244 128,284.5C 134.752,285.645 141.586,285.811 148.5,285C 151.289,284.759 153.956,284.092 156.5,283C 125.938,274.607 108.271,254.773 103.5,223.5 Z"/></g>
<g><path style="opacity:1" fill="#99dbfa" d="M 252.5,202.5 C 253.043,202.56 253.376,202.893 253.5,203.5C 250.691,204.8 248.024,204.8 245.5,203.5C 248.059,203.802 250.393,203.468 252.5,202.5 Z"/></g>
<g><path style="opacity:1" fill="#68caf8" d="M 104.5,216.5 C 103.532,218.607 103.198,220.941 103.5,223.5C 102.2,220.976 102.2,218.309 103.5,215.5C 104.107,215.624 104.44,215.957 104.5,216.5 Z"/></g>
<g><path style="opacity:1" fill="#98dbfa" d="M 131.5,222.5 C 132.289,222.783 132.956,223.283 133.5,224C 131.288,224.789 129.288,224.622 127.5,223.5C 129.099,223.768 130.432,223.434 131.5,222.5 Z"/></g>
</svg>
